X:1
T:Corn-Shucks
T:Ed Kuhn https://musescore.com/user/30298679/scores/5397751 Transcribed from: Album: "Rising Star", Track 3: "Corn-Shucks"
T:Corn-Shucks as performed by Tom Brier
C:Tom Brier
%%score { ( 1 3 ) | ( 2 4 ) }
L:1/8
Q:1/4=100
M:2/4
K:G
V:1 treble nm="Piano" snm="Pno."
V:3 treble 
V:2 bass 
V:4 bass 
V:1
"^Moderato" d'/e'/d'/c'/ af | d/e/d/c/ AF | D/E/D/C/[I:staff +1] A,F, | %3
 .D,2[I:staff -1] [dfad']2 || D/E/G/D/ E/G/F/E/ | Fd/e/ d/c/A/F/ | D/E/G/D/ E/G/F/E/ | %7
 Fd/e/ d/c/A/F/ | G/A/B/G/ A/B/G/A/ | B/G/A/B/- [EGB]2 | A/B/^c/A/ B/c/A/B/ | [Fe][Fd] [DFB][CFA] | %12
 D/E/G/D/ E/G/F/E/ | Fd/e/ d/c/A/F/ | D/E/G/D/ E/G/F/E/ | Fd/e/ d/c/A/F/ | G/A/B/G/ A/B/G/A/ | %17
 B/G/A/B/- [EGB]2 | z4 | z2 [dfad']2 || d/e/g/d/ e/g/f/e/ | fd'/e'/ d'/c'/a/f/ | %22
 d/e/g/d/ e/g/f/e/ | fd'/e'/ d'/c'/a/f/ | g/a/b/g/ a/b/g/a/ | b/g/a/b/- [egb]2 | %26
 a/b/^c'/a/ b/c'/a/b/ | [ee'][dd']/[Bdfb]/- [Bdfb]/[_B_b]/[Adfa] | d/e/g/d/ e/g/f/e/ | %29
 fd'/e'/ d'/c'/a/f/ | d/e/g/d/ e/g/f/e/ | fd'/e'/ d'/c'/a/f/ | g/a/b/g/ a/b/g/a/ | %33
 b/g/a/b/- [egb]2 | D^D/E/- E/^E/F | G2 [gbd'g']2 || [DGd][_D_d] [CFc][B,B]/[=D=d]/- | %37
 [Dd]/G/[_D_d] [CFc][B,B] |{/EF^G} A/G/A/[Ec]/- [Ec]/B/[Ec] | [FAcf]>c- [EAce]2 | %40
{/EF^G} A/G/A/E/- E/^D/E | G/F/G/D/- D/^C/D | [^CEGA][CE] [CEA]<[CEB] | %43
 [CFA]3/2 (3(b/4c'/4^c'/4 [dd']2) | [DGd][_D_d] [CFc][B,B]/[=D=d]/- | [Dd]/G/[_D_d] [CFc][B,B] | %46
{/EF^G} A/G/A/[EAc]/- [EAc]/B/[EAc] | [FAcf]>c- [EAce]2 |{/cd^d} [Ge]/[Fd]/[Ge]/[_Bg]/- g/f/e | %49
 d/^c/d/=f/- f/e/[^GB] | z{/b} [ec'] z [c^ga] | [Bdg]2 [gbd'g']>[DGBd]- || %52
 [DGBd]/G/[_D_B_d]/G/ [Cc][B,G=B]/[=DGB=d]/- | [DGBd]/[_DG_B_d][CFAc]/- [CFAc]<[B,=DG=B] | %54
{/EF^G} A/G/A/[EAc]/- [EAc]/B/[EAc] | z/ A x/ [EAce]2 |{/EF^G} A/G/A/E/- E/^D/E | %57
{/DEF} G/F/G/D/- D/^C/D | [^CEGA][CE] [CEA]/[CEB][=CFA]/- | [CFA]/^G/[CFA] [d^c'd']>[D=GBd]- | %60
 [DGBd]/G/[_D_B_d] [CFAc][B,G=B]/[=DGB=d]/- | [DGBd]/[_DG_B_d][CFAc]/- [CFAc]<[B,=DG=B] | %62
{/EF^G} A/G/A/[EAc]/- [EAc]/B/[EAc] | z/ A/c/ x/ [EAce]2 |{/cd^d} [Ge]/[Fd]/[Ge]/[_Bg]/- g/f/e | %65
 d/^c/d/=f/- f/e/[^GB] | z{/b} [ec'] z [c^ga] | [Bdg]2 [gbd'g']>[B,D]- || D/E/G/D/ E/G/F/E/ | %69
 Fd/e/ d/c/A/F/ | D/E/G/D/ E/G/F/E/ | Fd/e/ d/c/A/F/ | G/A/B/G/ A/B/G/A/ | B/G/A/B/- [EGB]2 | %74
 A/B/^c/A/ B/c/A/B/ | [EFe]/[_E_e]/[Dd]/[Bdfb]/- [Bdfb]/[_B_b]/[Adfa] | D/E/G/D/ E/G/F/E/ | %77
 Fd/e/ d/c/A/F/ | D/E/G/D/ E/G/F/E/ | Fd/e/ d/c/A/F/ | G/A/B/G/ A/B/G/A/ | B/G/A/B/- [EGB]2 | %82
 [Dcd][^D^d]/[EAce]/- [EAce]/[^E^e]/[Ff] | [GBdg]2 [gbd'g']3/2 (3(g/4a/4b/4 || %84
[K:C] [ec']2) [c^da]2 | [Gceg]2 [EGce]2 | [ebe']/^g/b/[ege']/- [ege']/b/[dd'] | %87
 [ceac'][Acea]- [Acea]3/2 (3(g/4a/4b/4 | [ec']2) [c^da]2 | z [ce] z [ce] | %90
 [Bb]/e/g/[Beb]/- [Beb]/g/[^A^a] | [Bdfgb]3 [GBdfg] | [cegc']2 [c^da]2 | [Gceg]2 [EGce]2 | %94
 [E^GBe][G^g] [Bb]<[Ee] | [Acea]2 [GBdfg]3/2!8va(! (3(g'/4a'/4b'/4 | %96
 .[e'c'']3/2)!8va)! (3(g/4a/4b/4 .[ec']3/2) (3(G/4A/4B/4 | [Ec]3/2) (3(G,/4A,/4B,/4 [E,C]2) | %98
 z [cegc']2 [dfbd'] | [cegc'][Gg]/[^F^f]/ [Gg]/[^G^g]/[Aa]/[Bb]/ || [cegc']2 [Ac^da]2 | %101
 [Gceg]2 [EGce]>^d' | [ebe']/^g/b/[ege']/- [ege']/b/[dgd'] | c'/b/c'/[ea]/- [cea]/_a/[Bdfg] | %104
 [cegc']2 [Ac^da]2 | [Geg]/c/e/[Aca]/- [Aca]/[^G^g]/[Aa]/[^A^a]/ | %106
 [Bb]/e/g/[Beb]/- [Beb]/g/[^A^a] | [Bdfgb]3 [GBdfg] | [cegc']2 [Ac_ea]2 | [Gceg]2 [EGce]>[^D^d] | %110
 [E^GBe][G^g]/[Bb]/- [Bb]/[Gg]/[Ee] | [Acea]2 [GBdfg]3/2!8va(! (3(g'/4a'/4b'/4 | %112
 .[e'c'']3/2)!8va)! (3(g/4a/4b/4 .[ec']3/2) (3(G/4A/4B/4 | [Ec]3/2) (3(G,/4A,/4B,/4 [E,C]2) | %114
 z [cegc']- [cegc']/[dfbd']c/- | [cegc'][Adfa] [cegc']2 ||{/Ac^c} [^F=cd]/[Fcd][Fcd]/ [Gc_e][Gce] | %117
 [^Fcd][Gc_e] [Fcd]2 |{/df^f} [B=fg]/[Bfg][Bfg]/ [cf_a][cfa] | [Bfg][cf_a] [Bfg]2 | %120
 z/ [Bfg][ca]/ [db]/[ca]/[Bg] | z/ [B,FG][CA]/ [DB]/[CA]/[B,G] | x4 | %123
 x [Gg]/[Aa]/- [Aa]/[^A^a]/[Bb] || [cegc']2 [Ac^da]2 | [Gceg]2 [EGce]>^d' | %126
 [ebe']/^g/b/[ege']/- [ege']/b/[dgd'] | c'/b/c'/[Aa]/- [Aa]/[_A_a]/[GBdfg] | [cegc']2 [Ac^da]2 | %129
 [Geg]/c/e/[Aca]/- [Aca]/[^G^g]/[Aa]/[^A^a]/ | [Bb]/e/g/[Beb]/- [Beb]/g/[^A^a] | [Bdfgb]3 [GBdfg] | %132
 [cegc']2 [Ac^da]2 | [Gceg]2 [EGce]>[^D^d] | [E^GBe][G^g]/[Bb]/- [Bb]/[Gg]/[Ee] | %135
 [Acea]2 [GBdfg]3/2!8va(! (3(g'/4a'/4b'/4 | %136
 .[e'c'']3/2)!8va)! (3(g/4a/4b/4 .[ec']3/2) (3(G/4A/4B/4 | [Ec]3/2) (3(G,/4A,/4B,/4 [E,C]2) | %138
 z [cegc']- [cegc']/[dfbd']c/- | [cegc'][gbd'f'g']!8va(! [c'e'g'c'']2!8va)! |] %140
V:2
[I:staff -1] [DFAc]4 |[I:staff +1] [D,F,A,C]4 | [D,,D,]4 | .[D,,,D,,]2 [D,F,A,C].[D,,D,] || %4
 [G,,G,].[G,B,D] [B,,B,].[_B,,_B,] | [A,,A,].[D,F,C] [D,,D,].[D,F,C] | %6
 [G,,G,].[D,G,B,] [B,,B,].[_B,,_B,] | [A,,A,].[D,F,C] [D,,D,].[D,F,C] | %8
 [E,,E,].[E,G,B,] [B,,,B,,].[E,G,B,] | [E,,E,].[E,G,B,] [B,,,B,,].[E,G,B,] | %10
 [A,,,A,,].[G,A,^CE] [E,,E,].[A,,,A,,] | [D,,A,,D,][D,F,C]- [D,F,C]/[D,,D,]/[E,,E,]/[F,,F,]/ | %12
 [G,,G,].[D,G,B,] [B,,B,].[D,G,B,] | [A,,A,].[D,F,C] [D,,D,].[D,F,C] | %14
 [G,,G,].[D,G,B,] [B,,B,].[_B,,_B,] | [A,,A,].[D,F,C] [D,,D,].[D,F,C] | %16
 [E,,E,].[E,G,B,] [B,,,B,,].[E,G,B,] | [E,,E,].[E,G,B,] [E,,E,].[_E,,_E,] | %18
 [D,,D,][^D,,^D,]/[E,,E,]/- [E,,E,]/[^E,,^E,]/[F,,F,] | %19
 [G,,G,][E,,E,]/[D,,D,]/- [D,,D,]/[C,,C,]/[B,,,B,,]/[A,,,A,,]/ || %20
 [G,,,G,,].[D,G,B,] [B,,,B,,].[_B,,,_B,,] | %21
 [A,,,A,,].[D,F,A,C] [D,,A,,D,]/[^D,,^D,]/[E,,E,]/[F,,F,]/ | [G,,G,].[D,G,B,] [B,,B,].[_B,,_B,] | %23
 [A,,A,].[D,F,A,C] [D,,D,]/[^C,,^C,]/[D,,D,]/[^D,,^D,]/ | [E,,E,].[G,B,E] [B,,,B,,].[G,B,E] | %25
 [E,,E,].[G,B,E] [E,,E,]/[D,,D,]/[B,,,B,,]/[_B,,,_B,,]/ | [A,,,A,,].[G,A,^CE] [E,,E,].[A,,,A,,] | %27
 [D,,A,,D,].[D,F,A,C] [D,,D,]/[^D,,^D,]/[E,,E,]/[F,,F,]/ | [G,,G,].[D,G,B,] [B,,B,].[_B,,_B,] | %29
 [A,,D,A,].[D,F,A,C] [D,,A,,D,]/[^D,,^D,]/[E,,E,]/[F,,F,]/ | [G,,G,].[D,G,B,] [B,,B,].[_B,,_B,] | %31
 [A,,A,].[D,F,A,C] [D,,D,]/[^C,,^C,]/[D,,D,]/[^D,,^D,]/ | [E,,E,].[G,B,E] [B,,,B,,].[G,B,E] | %33
 [E,,E,].[G,B,E] [E,,E,]/[F,,F,]/[E,,E,]/[_E,,_E,]/ | %34
 [D,,D,][^D,,^D,]/[E,,E,]/- [E,,E,]/[^E,,^E,]/[F,,F,] | [G,,G,][D,,D,] [G,,,G,,]>B,,- || %36
 [B,,B,][_B,,_B,] [A,,A,][G,,G,] | [B,,B,][_B,,_B,] [A,,A,][G,,G,] | %38
 [A,,E,A,].[E,A,C] [E,,E,].[E,A,C] | [D,,D,].[D,F,C] [A,,A,].[D,F,C] | %40
 [A,,A,].[E,A,C] [E,,E,].[E,A,C] | [G,,G,].[D,G,B,] [B,,B,].[D,G,B,] | %42
 [A,,A,].[E,G,A,] [E,,E,][A,,,A,,] | [D,,D,].[D,F,C] [D,F,C][D,,D,] | %44
 [B,,B,][_B,,_B,] [A,,A,][G,,G,] | [B,,B,][_B,,_B,] [A,,A,][G,,G,] | %46
 [A,,E,A,].[E,A,C] [E,,E,].[E,A,C] | [D,,D,].[D,F,C] [D,,D,][_D,,_D,] | %48
 [C,,C,].[G,CE] [^C,,^C,].[G,^CE] | [D,,D,].[D,G,B,] [E,,E,].[E,^G,B,D] | %50
 [A,,A,].[E,A,C] [D,,D,].[D,F,A,C]/G,,/- | [G,,B,][D,,D,] [G,,,G,,]2 || %52
 [B,,B,][_B,,_B,] [A,,A,][G,,G,] | [B,,B,][_B,,_B,] [A,,A,][G,,G,] | %54
 [A,,E,A,].[E,A,C] [E,,E,].[E,A,C] | [D,,D,].[D,F,C] [A,,,A,,].[D,F,C] | %56
 [A,,,A,,].[E,A,C] [E,,E,].[A,,A,] | [G,,G,].[D,G,B,] [B,,B,].[_B,,_B,] | %58
 [A,,A,][G,,G,] [E,,E,][^C,,^C,] | [D,,D,][A,,,A,,] [D,,,D,,][D,,D,] | %60
 [B,,B,][_B,,_B,] [A,,A,][G,,G,] | [B,,B,][_B,,_B,] [A,,A,][G,,G,] | %62
 [A,,E,A,].[E,A,C] [E,,E,].[E,A,C] | [D,,D,].[D,F,C] [D,,D,][_D,,_D,] | %64
 [C,,C,].[G,CE] [^C,,^C,].[G,^CE] | [D,,D,][^D,,^D,] [E,,E,].[E,^G,B,D] | %66
 [A,,A,].[E,A,C] [D,,D,].[D,F,A,C]/G,,/- | [G,,B,][D,,D,] [G,,,G,,]2 || %68
 [G,,,D,,G,,].[D,G,B,] [B,,,B,,].[_B,,,_B,,] | %69
 [A,,,A,,].[D,F,A,C] [D,,D,]/[^D,,^D,]/[E,,E,]/[F,,F,]/ | [G,,G,].[D,G,B,] [B,,B,].[_B,,_B,] | %71
 [A,,A,].[D,F,A,C] [D,,D,]/[^C,,^C,]/[D,,D,]/[^D,,^D,]/ | [E,,E,].[G,B,E] [B,,,B,,].[E,G,B,] | %73
 [E,,E,].[E,G,B,] [E,,E,]/[D,,D,]/[B,,,B,,]/[_B,,,_B,,]/ | [A,,,A,,].[G,A,^CE] [E,,E,].[A,,,A,,] | %75
 [D,,A,,D,].[D,F,A,C] [D,,D,]/[^D,,^D,]/[E,,E,]/[F,,F,]/ | [G,,G,].[D,G,B,] [B,,B,].[_B,,_B,] | %77
 [A,,D,A,].[D,F,A,C] [D,,D,]/[^D,,^D,]/[E,,E,]/[F,,F,]/ | [G,,G,].[D,G,B,] [B,,B,].[_B,,_B,] | %79
 [A,,A,].[D,F,A,C] [D,,D,]/[^C,,^C,]/[D,,D,]/[^D,,^D,]/ | [E,,E,].[G,B,E] [B,,,B,,].[E,G,B,] | %81
 [E,,E,].[E,G,B,] [E,,E,]/[F,,F,]/[E,,E,]/[_E,,_E,]/ | %82
 [D,,D,][^D,,^D,]/[E,,E,]/- [E,,E,]/[^E,,^E,]/[F,,F,] | [G,,G,][D,,D,] [G,,,G,,]2 || %84
[K:C] [C,,C,] [G,CE]2 .[^D,,^D,] | [E,,E,].[G,CE] [C,,C,].[G,CE] | %86
 [B,,,B,,].[E,^G,B,D] [E,,E,].[E,G,B,D] | [A,,A,].[E,A,C] [A,,A,][G,,G,] | %88
 [C,,C,] [G,CE]2 .[^D,,^D,] | [E,,E,].[G,CE] [C,,C,].[G,CE] | [E,,E,].[G,B,E] [B,,B,].[^A,,^A,] | %91
 [B,,B,]>[^G,,^G,] [A,,A,][=G,,=G,] | [C,,C,] [G,CE]2 .[^D,,^D,] | [E,,E,].[G,CE] [C,,C,].[G,CE] | %94
 [B,,,B,,].[E,^G,B,D] [E,,E,].[E,G,B,D] | [A,,A,]2 [G,,G,]2 | [C,,C,].[G,CE] z [G,,G,] | %97
 [C,C][G,,G,] [C,,C,][^F,,^F,] | [G,,G,].[G,CE] [G,,G,].[G,B,F] | [G,CE]2 [G,B,F][G,,G,] || %100
 [C,,C,].[G,CE] [C,,C,].[^D,,^D,] | [E,,E,].[G,CE] [C,,C,].[G,CE] | %102
 [B,,,B,,].[E,^G,B,D] [E,,E,].[E,G,B,D] | [A,,A,].[E,A,C] [A,,A,]/[_A,,_A,]/[G,,G,] | %104
 [C,,C,].[G,CE] [C,,C,].[^D,,^D,] | [E,,E,].[G,CE] [C,,C,].[G,CE] | %106
 [E,,E,].[G,B,E] [B,,B,].[^A,,^A,] | [B,,B,][_B,,_B,]/[A,,A,]/- [A,,A,]/[_A,,_A,]/[G,,G,] | %108
 [C,,C,].[G,CE] [C,,C,].[^D,,^D,] | [E,,E,].[G,CE] [C,,C,].[G,CE] | %110
 [B,,,B,,].[E,^G,B,D] [E,,E,].[E,G,B,D] | [A,,A,][_A,,_A,] [G,,G,][G,,,G,,] | %112
 [C,,C,].[G,CE] z [G,,G,] | [C,C][G,,G,] [C,,C,][^F,,^F,] | [G,,G,].[G,CE] [G,,G,].[G,B,F] | %115
 [G,CE].[G,B,F] [G,CE]2 || ^F,/F,F,/ G,G, | ^F,G, F,2 | B,/B,B,/ CC | B,C B,G,- | [G,G]4 | G,4 | %122
 z/ [F,D][G,E]/ [A,F]/[G,E]/[F,D]/[E,C]/ | [D,B,] [G,,,G,,] [A,,,A,,][B,,,B,,] || %124
 [C,,G,,C,].[G,CE] [C,,C,].[^D,,^D,] | [E,,E,].[G,CE] [C,,C,].[G,CE] | %126
 [B,,,B,,].[E,^G,B,D] [E,,,E,,].[E,G,B,D] | %127
 [A,,,E,,A,,].[E,A,C]/[A,,A,]/- [A,,A,]/[_A,,_A,]/[G,,G,] | [C,,C,].[G,CE] [C,,C,].[^D,,^D,] | %129
 [E,,E,].[G,CE] [C,,C,].[G,CE] | [E,,E,].[G,B,E] [B,,B,].[^A,,^A,] | %131
 [B,,B,]/[_B,,_B,]/[A,,A,]/[_A,,_A,]/ [G,,G,]/[F,,F,]/[E,,E,]/[D,,D,]/ | %132
 [C,,C,].[G,CE] [C,,C,].[^D,,^D,] | [E,,E,].[G,CE] [C,,C,].[G,CE] | %134
 [B,,,B,,].[E,^G,B,D] [E,,E,].[E,G,B,D] | [A,,A,][_A,,_A,] [G,,G,][G,,,G,,] | %136
 [C,,C,].[G,CE] z [G,,,G,,] | [C,,C,][G,,,G,,] [C,,,C,,][^F,,,^F,,] | %138
 [G,,,G,,].[G,CE] [G,,G,].[G,B,F] | [G,CE][G,,,G,,]!8vb(! [C,,,G,,,C,,]2!8vb)! |] %140
V:3
 x4 | x4 | x4 | x4 || x4 | x2 F3/2 x/ | x4 | x2 F3/2 x/ | E2- E<E | EE/[EG]/- x2 | GG- G<G | x4 | %12
 x4 | x2 F3/2 x/ | x4 | x2 F3/2 x/ | E2- E<E | EE/[EG]/- x2 | x4 | x4 || BB- B<B | c2 f3/2 x/ | %22
 BB- B<B | c2 f3/2 x/ | x e- e<e | e>[eg]- x2 | gg- g<g | x4 | BB- B<B | c2 f3/2 x/ | x B- B<B | %31
 c2 f3/2 x/ | x e- e<e | e>[eg]- x2 | x4 | x4 || x4 | x4 | x4 | x4 | x4 | x4 | x4 | x4 | x4 | x4 | %46
 x4 | x4 | x2 B2 | BG/^G/- G x | x4 | x4 || x4 | x4 | x4 | [Fcf]>[EAce]- x2 | x4 | x4 | x4 | x4 | %60
 x4 | x4 | x4 | [Fcf]>[EAce]- x2 | x2 B2 | B>^G- G x | x4 | x4 || B, x3/2 B,3/2 | C2 F3/2 x/ | %70
 x5/2 B,3/2 | C2 F3/2 x/ | E x3/2 E3/2 | E>[EG]- x2 | GG- G<G | x4 | B, x3/2 B,3/2 | C2 F3/2 x/ | %78
 x5/2 B,3/2 | C2 F3/2 x/ | E x3/2 E3/2 | E>[EG]- x2 | x4 | x4 ||[K:C] x4 | x4 | x4 | x4 | x4 | %89
 [Gg]2 [Aa]2 | x4 | x4 | x4 | x4 | x4 | x7/2!8va(! x/ | x3/2!8va)! x5/2 | x4 | x4 | x4 || x4 | x4 | %102
 x4 | c>c- x2 | x4 | x4 | x4 | x4 | x4 | x4 | x4 | x7/2!8va(! x/ | x3/2!8va)! x5/2 | x4 | x4 | %115
 x4 || x4 | x4 | x4 | x4 | x4 | x4 | x4 | x4 || x4 | x4 | x4 | c3/2 x5/2 | x4 | x4 | x4 | x4 | x4 | %133
 x4 | x4 | x7/2!8va(! x/ | x3/2!8va)! x5/2 | x4 | x4 | x2!8va(! x2!8va)! |] %140
V:4
 x4 | x4 | x4 | x4 || x4 | x4 | x4 | x4 | x4 | x4 | x4 | x4 | x4 | x4 | x4 | x4 | x4 | x4 | x4 | %19
 x4 || x4 | x4 | x4 | x4 | x4 | x4 | x4 | x4 | x4 | x4 | x4 | x4 | x4 | x4 | x4 | x4 || x4 | x4 | %38
 x4 | x4 | x4 | x4 | x4 | x4 | x4 | x4 | x4 | x4 | x4 | x4 | x4 | x4 || x4 | x4 | x4 | x4 | x4 | %57
 x4 | x4 | x4 | x4 | x4 | x4 | x4 | x4 | x4 | x4 | x4 || x4 | x4 | x4 | x4 | x4 | x4 | x4 | x4 | %76
 x4 | x4 | x4 | x4 | x4 | x4 | x4 | x4 ||[K:C] x4 | x4 | x4 | x4 | x4 | x4 | x4 | x4 | x4 | x4 | %94
 x4 | x4 | x4 | x4 | x4 | x4 || x4 | x4 | x4 | x4 | x4 | x4 | x4 | x4 | x4 | x4 | x4 | x4 | x4 | %113
 x4 | x4 | x4 || x4 | x4 | x4 | x4 | x4 | x4 | G,,4 | x4 || x4 | x4 | x4 | x4 | x4 | x4 | x4 | x4 | %132
 x4 | x4 | x4 | x4 | x4 | x4 | x4 | x2!8vb(! x2!8vb)! |] %140

